public/showcase/resources/images/home/unicredit.svg

<svg height="27" viewBox="0 0 116 27" width="116" xmlns="http://www.w3.org/2000/svg" xmlns:xlink="http://www.w3.org/1999/xlink"><mask id="a" fill="#fff"><path d="m.15294222 25.65h8.63190222v-25.44368625h-8.63190222z" fill="none"/></mask><mask id="b" fill="#fff"><path d="m.07344757 20.25h8.92164115v-19.89581099h-8.92164115z" fill="none"/></mask><mask id="c" fill="#fff"><path d="m16.6252893.17357143h-16.50093679v26.82635847h16.50093679z" fill="none"/></mask><mask id="d" fill="#fff"><path d="m.00010053 25.65h16.50891377v-25.44368625h-16.50891377z" fill="none"/></mask><g fill="#fff" fill-rule="evenodd" transform=""><path d="m5.87738667.20631375c-2.14666667 0-3.89666667 1.9089-3.89666667 4.2552v2.2831875h-1.82777778v3.61597505h1.82777778v10.7402625c0 2.9338875 1.67284444 4.5491625 4.71084444 4.5491625 1.10911112 0 1.91115556-.3526875 2.09346667-.4428v-3.725325c-.29244444.1103625-.76937778.2419875-1.08826667.2419875-1.21955555 0-1.59164444-.3722625-1.59164444-1.5933375v-9.76995h2.67991111v-3.61597505h-2.67991111v-6.5383875z" mask="url(#a)" transform="translate(106.977778)"/><path d="m93.7414493 23.9531511h-1.7624955c-2.6623161 0-3.9563285-2.0289722-3.9563285-6.2015841 0-3.0109634.735227-6.6010497 4.2378026-6.6010497.5549427 0 1.0362346.0683923 1.4810214.1905457zm4.0027605-22.6031511c-2.2239337 0-4.0341422 1.92927587-4.0341422 4.30054986v3.03648286c-.6817501-.18033795-1.4358702-.28411734-2.3264044-.28411734-4.6207867 0-7.6058854 3.76123732-7.6058854 9.58104932 0 5.7745575 2.8675776 8.9764069 8.0750089 9.0158771.2036605.0006805 5.2042292.0020415 6.1027689-.0643092v-25.5855326z"/><path d="m71.1345641 16.1178955c.0126115-3.3528829 1.18017-5.0173437 3.6546774-5.0946271 1.1668948-.0361106 3.6941713.1221685 3.8332296 4.0244719zm11.3543248.784308c0-5.6804957-2.7035055-8.8022035-7.5390168-8.8022035-4.9158266 0-7.9276499 3.5965448-7.9276499 9.3971841 0 5.9508187 3.2311969 9.5028159 8.6428542 9.5028159 2.9919104 0 5.0874093-.7245737 6.2177971-1.3408157v-3.7399746c-1.1220908.8180562-2.685252 1.8281395-5.77905 1.8281395-2.7941091 0-4.3280647-1.5048318-4.7017631-4.5742299l11.0868285-1.5476921z"/><path d="m.07344757 1.87120658v18.37882892h.23090206c2.31837695 0 4.19800658-2.0065263 4.19800658-4.4720526v-11.69881579c.91993251-.50021053 2.94291523-.87536843 4.49273251.28172368v-3.87734211c-4.43358683-.43697368-6.74828806.28492106-8.92164115 1.3876579" mask="url(#b)" transform="translate(58 6.75)"/><path d="m.12435251 13.5171117c0 6.6998571 3.72367581 13.4828182 10.84117299 13.4828182 2.3651616 0 4.3804279-.5438572 5.6597638-1.5561818v-4.5885975c-1.0368732 1.4937663-2.7686091 2.0895195-4.6702004 2.0895195-4.33147539 0-7.24201395-4.8943636-7.24201395-9.4650779 0-4.55528571 2.76926623-9.47174025 7.24201395-9.47174025 2.2659425 0 3.6858937.9705974 4.6702004 2.34409091v-4.62681818c-1.6249603-1.06457143-3.5488924-1.55162338-5.6216531-1.55162338-7.14246627 0-10.87928369 6.71283117-10.87928369 13.3436104" mask="url(#c)" transform="translate(39.955556)"/><path d="m.02157968.3542329v19.8958026h.25667302c2.55236825 0 4.62784762-2.0029737 4.62784762-4.4653026v-15.4305z" transform="translate(34.8 6.75)"/><path d="m34.8 3.39023019c0 1.10826559 1.156196 2.00976981 2.578135 2.00976981 1.4455129 0 2.5774206-.8827357 2.5774206-2.00976981 0-1.14395654-1.1319077-2.04023019-2.5774206-2.04023019-1.421939 0-2.578135.91504216-2.578135 2.04023019"/><path d="m16.2844899.20631375c-2.2536223 0-4.0870151 1.8468-4.0870151 4.1164875v14.10277505c0 2.3007375-1.9469956 3.5424-3.77938316 3.5424-1.87327111 0-3.81121866-1.325025-3.81121866-3.5424v-18.21926255h-.29891911c-2.37560267 0-4.30785334 1.9467-4.30785334 4.339575v13.91276255c0 4.09995 3.54882667 7.19145 8.254792 7.19145 4.70563027 0 8.25412177-3.0915 8.25412177-7.19145v-18.25233755z" mask="url(#d)"/><path d="m18.0444444 9.46983912v17.53016088h4.380516v-15.4806332c.7200079-.2760602 1.3653385-.4299519 2.4977235-.4299519 2.4114812 0 2.9177006 1.4953823 2.9177006 2.7494652l-.0033043 8.9429334c-.0003304 2.3239005 1.877836 4.2181865 4.1670579 4.2181865h.2180841v-13.226254c0-2.1190489-.9268573-5.673746-7.1376274-5.673746-2.7815632 0-5.1573579.47179973-7.0401504 1.36983912"/><path d="m.29909096.3542329v19.8958026h.23956148c2.38186667 0 4.32001186-2.0029737 4.32001186-4.4653026v-15.4305z" transform="translate(100.533333 6.75)"/><path d="m100.533333 3.39023019c0 1.10826559 1.156473 2.00976981 2.579028 2.00976981 1.445413 0 2.576528-.8827357 2.576528-2.00976981 0-1.14395654-1.131115-2.04023019-2.576528-2.04023019-1.422555 0-2.579028.91504216-2.579028 2.04023019"/></g></svg>

<?xml version="1.0" encoding="UTF-8"?>
<svg width="116px" height="27px" viewBox="0 0 116 27" version="1.1" xmlns="http://www.w3.org/2000/svg" xmlns:xlink="http://www.w3.org/1999/xlink">
    <!-- Generator: sketchtool 45.2 (43514) - http://www.bohemiancoding.com/sketch -->
    <title>AC89E34A-129B-42B5-8874-DC4C0250B84E</title>
    <desc>Created with sketchtool.</desc>
    <defs>
        <polygon id="path-1" points="0.152942222 25.65 8.78484444 25.65 8.78484444 0.20631375 0.152942222 0.20631375"></polygon>
        <polygon id="path-3" points="0.073447572 20.25 8.99508872 20.25 8.99508872 0.354189006 0.073447572 0.354189006 0.073447572 20.25"></polygon>
        <polygon id="path-5" points="16.6252893 0.173571429 0.124352505 0.173571429 0.124352505 26.9999299 16.6252893 26.9999299"></polygon>
        <polygon id="path-7" points="0.000100533333 25.65 16.5090143 25.65 16.5090143 0.20631375 0.000100533333 0.20631375 0.000100533333 25.65"></polygon>
    </defs>
    <g id="Page-1" stroke="none" stroke-width="1" fill="none" fill-rule="evenodd">
        <g id="PrimeReact-Showcase---Homepage" transform="translate(-411.000000, -1200.000000)">
            <g id="homepage" transform="translate(301.000000, 70.000000)">
                <g id="brands" transform="translate(0.000000, 1019.000000)">
                    <g transform="translate(109.000000, 27.000000)" id="unicredit">
                        <g transform="translate(1.000000, 84.000000)">
                            <g id="Group-3" transform="translate(106.977778, 0.000000)">
                                <mask id="mask-2" fill="white">
                                    <use xlink:href="#path-1"></use>
                                </mask>
                                <g id="Clip-2"></g>
                                <path d="M5.87738667,0.20631375 C3.73072,0.20631375 1.98072,2.11521375 1.98072,4.46151375 L1.98072,6.74470125 L0.152942222,6.74470125 L0.152942222,10.3606763 L1.98072,10.3606763 L1.98072,21.1009388 C1.98072,24.0348263 3.65356444,25.6501013 6.69156444,25.6501013 C7.80067556,25.6501013 8.60272,25.2974138 8.78503111,25.2073013 L8.78503111,21.4819763 C8.49258667,21.5923388 8.01565333,21.7239638 7.69676444,21.7239638 C6.47720889,21.7239638 6.10512,21.3517013 6.10512,20.1306263 L6.10512,10.3606763 L8.78503111,10.3606763 L8.78503111,6.74470125 L6.10512,6.74470125 L6.10512,0.20631375 L5.87738667,0.20631375 Z" id="Fill-1" fill="#FFFFFF" mask="url(#mask-2)"></path>
                            </g>
                            <path d="M93.7414493,23.9531511 L91.9789538,23.9531511 C89.3166377,23.9531511 88.0226253,21.9241789 88.0226253,17.751567 C88.0226253,14.7406036 88.7578523,11.1505173 92.2604279,11.1505173 C92.8153706,11.1505173 93.2966625,11.2189096 93.7414493,11.341063 L93.7414493,23.9531511 Z M97.7442098,1.35 C95.5202761,1.35 93.7100676,3.27927587 93.7100676,5.65054986 L93.7100676,8.68703272 C93.0283175,8.50669477 92.2741974,8.40291538 91.3836632,8.40291538 C86.7628765,8.40291538 83.7777778,12.1641527 83.7777778,17.9839647 C83.7777778,23.7585222 86.6453554,26.9603716 91.8527867,26.9998418 C92.0564472,27.0005223 97.0570159,27.0018833 97.9555556,26.9355326 L97.9555556,1.35 L97.7442098,1.35 Z" id="Fill-4" fill="#FFFFFF"></path>
                            <path d="M71.1345641,16.1178955 C71.1471756,12.7650126 72.3147341,11.1005518 74.7892415,11.0232684 C75.9561363,10.9871578 78.4834128,11.1454369 78.6224711,15.0477403 L71.1345641,16.1178955 Z M82.4888889,16.9022035 C82.4888889,11.2217078 79.7853834,8.1 74.9498721,8.1 C70.0340455,8.1 67.0222222,11.6965448 67.0222222,17.4971841 C67.0222222,23.4480028 70.2534191,27 75.6650764,27 C78.6569868,27 80.7524857,26.2754263 81.8828735,25.6591843 L81.8828735,21.9192097 C80.7607827,22.7372659 79.1976215,23.7473492 76.1038235,23.7473492 C73.3097144,23.7473492 71.7757588,22.2425174 71.4020604,19.1731193 L82.4888889,17.6254272 L82.4888889,16.9022035 Z" id="Fill-6" fill="#FFFFFF"></path>
                            <g id="Group-10" transform="translate(58.000000, 6.750000)">
                                <mask id="mask-4" fill="white">
                                    <use xlink:href="#path-3"></use>
                                </mask>
                                <g id="Clip-9"></g>
                                <path d="M0.073447572,1.87120658 L0.073447572,20.2500355 L0.30434963,20.2500355 C2.62272658,20.2500355 4.50235621,18.2435092 4.50235621,15.7779829 L4.50235621,4.07916711 C5.42228872,3.57895658 7.44527144,3.20379868 8.99508872,4.36089079 L8.99508872,0.483548684 C4.56150189,0.046575 2.24680066,0.768469737 0.073447572,1.87120658" id="Fill-8" fill="#FFFFFF" mask="url(#mask-4)"></path>
                            </g>
                            <g id="Group-13" transform="translate(39.955556, 0.000000)">
                                <mask id="mask-6" fill="white">
                                    <use xlink:href="#path-5"></use>
                                </mask>
                                <g id="Clip-12"></g>
                                <path d="M0.124352505,13.5171117 C0.124352505,20.2169688 3.84802832,26.9999299 10.9655255,26.9999299 C13.3306871,26.9999299 15.3459534,26.4560727 16.6252893,25.4437481 L16.6252893,20.8551506 C15.5884161,22.3489169 13.8566802,22.9446701 11.9550889,22.9446701 C7.62361351,22.9446701 4.71307495,18.0503065 4.71307495,13.4795922 C4.71307495,8.92430649 7.48234118,4.00785195 11.9550889,4.00785195 C14.2210314,4.00785195 15.6409826,4.97844935 16.6252893,6.35194286 L16.6252893,1.72512468 C15.000329,0.660553247 13.0763969,0.173501299 11.0036362,0.173501299 C3.86116993,0.173501299 0.124352505,6.88633247 0.124352505,13.5171117" id="Fill-11" fill="#FFFFFF" mask="url(#mask-6)"></path>
                            </g>
                            <g id="Group-16" transform="translate(34.800000, 6.750000)" fill="#FFFFFF">
                                <path d="M0.0215796825,0.354232895 L0.0215796825,20.2500355 L0.278252698,20.2500355 C2.83062095,20.2500355 4.90610032,18.2470618 4.90610032,15.7847329 L4.90610032,0.354232895 L0.0215796825,0.354232895 Z" id="Fill-14"></path>
                            </g>
                            <path d="M34.8,3.39023019 C34.8,4.49849578 35.956196,5.4 37.378135,5.4 C38.8236479,5.4 39.9555556,4.5172643 39.9555556,3.39023019 C39.9555556,2.24627365 38.8236479,1.35 37.378135,1.35 C35.956196,1.35 34.8,2.26504216 34.8,3.39023019" id="Fill-17" fill="#FFFFFF"></path>
                            <g id="Group-21">
                                <mask id="mask-8" fill="white">
                                    <use xlink:href="#path-7"></use>
                                </mask>
                                <g id="Clip-20"></g>
                                <path d="M16.2844899,0.20631375 C14.0308676,0.20631375 12.1974748,2.05311375 12.1974748,4.32280125 L12.1974748,18.4255763 C12.1974748,20.7263138 10.2504792,21.9679763 8.41809164,21.9679763 C6.54482053,21.9679763 4.60687298,20.6429513 4.60687298,18.4255763 L4.60687298,0.20631375 L4.30795387,0.20631375 C1.9323512,0.20631375 0.000100533333,2.15301375 0.000100533333,4.54588875 L0.000100533333,18.4586513 C0.000100533333,22.5586013 3.5489272,25.6501013 8.25489253,25.6501013 C12.9605228,25.6501013 16.5090143,22.5586013 16.5090143,18.4586513 L16.5090143,0.20631375 L16.2844899,0.20631375 Z" id="Fill-19" fill="#FFFFFF" mask="url(#mask-8)"></path>
                            </g>
                            <path d="M18.0444444,9.46983912 L18.0444444,27 L22.4249604,27 L22.4249604,11.5193668 C23.1449683,11.2433066 23.7902989,11.0894149 24.9226839,11.0894149 C27.3341651,11.0894149 27.8403845,12.5847972 27.8403845,13.8388801 L27.8370802,22.7818135 C27.8367498,25.105714 29.7149162,27 32.0041381,27 L32.2222222,27 L32.2222222,13.773746 C32.2222222,11.6546971 31.2953649,8.1 25.0845948,8.1 C22.3030316,8.1 19.9272369,8.57179973 18.0444444,9.46983912" id="Fill-22" fill="#FFFFFF"></path>
                            <g id="Group-26" transform="translate(100.533333, 6.750000)" fill="#FFFFFF">
                                <path d="M0.299090963,0.354232895 L0.299090963,20.2500355 L0.538652444,20.2500355 C2.92051911,20.2500355 4.8586643,18.2470618 4.8586643,15.7847329 L4.8586643,0.354232895 L0.299090963,0.354232895 Z" id="Fill-24"></path>
                            </g>
                            <path d="M100.533333,3.39023019 C100.533333,4.49849578 101.689806,5.4 103.112361,5.4 C104.557774,5.4 105.688889,4.5172643 105.688889,3.39023019 C105.688889,2.24627365 104.557774,1.35 103.112361,1.35 C101.689806,1.35 100.533333,2.26504216 100.533333,3.39023019" id="Fill-27" fill="#FFFFFF"></path>
                        </g>
                    </g>
                </g>
            </g>
        </g>
    </g>
</svg>
